X: 40
T:Duncan Gray
M:4/4
L:1/4
R:March
K:A
E|"A"EAGA|"D"Bc "E7" G2|"A"A2 "E7"B>d|"A"cAAE|"A"EAGA|"D"Bc "E7" G2|"A"A
2 "E7"B>d|"A"cAA:|!
|:z|"A"cee d/c/|"D"ddd2|"Bm"d>c "B7"BA|"E7"GAB2|"A"ec"E7"dB|"A"cAB2|"A"A
2 "E7"B>d|"A"cAA:||
